X:1
T:Title
%%score ( 1 2 ) { ( 3 5 ) | 4 }
L:1/8
Q:1/4=100
M:3/4
K:C
V:1 treble nm="Bright Piano"
V:2 treble 
V:3 bass nm="Bright Piano"
V:5 bass 
V:4 bass 
V:1
 E2 G2 [B,F]2 | [CE]4 [B,D]2 | C2 [Ec]2 [EB]2 | [FA]2 [EG]2 z2 | [DF]4 [CE]2 | [B,F]4 [CE]2 | %6
w: Johann~J.~Walder * *||||||
 G2 AG [B,F][CE] | [CE]2 [B,D]2 z2 | E2 G2 [B,F]2 | [CE]4 [B,D]2 | C2 [Ec]2 [EB]2 | %11
w: |||||
 [FA]2 [EG]2 z2 | [DG]4 [DB]2 | [DA]4 [Dc]2 | [DB]4 [^FA]2 | [DG]4 z2 | [GB]4 [GB]2 | c2 B2 dc | %18
w: |||||||
 [GB]4 [FB]2 | [Ec]2 [EG]2 z2 | [CE]4 [DF]2 | [EG]4 [CE]2 | G2 z2 z2 | [CE]2 [B,D]2 z2 | E2 z2 z2 | %25
w: |||||||
 [CE]4 [B,D]2 | C2 [Ec]2 [EB]2 | [FA]2 [EG]2 z2 | [Ge]4 [Fd]2 | [Ec]4 [FB]2 | [Fd]2 [Ec]2 [FB]2 | %31
w: ||||||
 [Ec]4 z2 |] %32
w: |
V:2
 C4 z2 | x6 | x6 | x6 | x6 | x6 | C4 z2 | x6 | C4 z2 | x6 | x6 | x6 | x6 | x6 | x6 | x6 | x6 | %17
 G4 G2 | x6 | x6 | x6 | x6 | C2- [C-A][CG] [B,F][CE] | x6 | C2- [CG]2 [B,F]2 | x6 | x6 | x6 | x6 | %29
 x6 | x6 | x6 |] %32
V:3
 G,2 E,2 G,2 | G,2 G,2 G,2 | G,4 G,2 | C2 C2 z2 | G,4 z2 | G,4 G,2 | E,2 F,E, G,2 | G,4 z2 | %8
 G,2 E,2 G,2 | G,2 G,2 G,2 | G,4 G,2 | C2 C2 z2 | B,4 B,2 | C4 A,2 | G,4 C2 | B,4 z2 | D4 F2 | %17
 E2 D2 FE | D4 D2 | C2 C2 z2 | G,4 G,2 | G,4 G,2 | E,2 F,E, G,2 | G,4 z2 | G,2 E,2 G,2 | %25
 G,2 G,2 G,2 | G,4 G,2 | C2 C2 z2 | G,4 G,2 | G,4 G,2 | B,2[K:treble] C2 D2 | C4 z2 |] %32
V:4
 C,4 D,2 | E,2 z2 F,2 | E,2 C,2 E,2 | C,2 C,2 z2 | B,,2 z2 C,2 | D,2 G,,2 C,2 | C,4 D,C, | %7
 G,,4 z2 | C,4 D,2 | E,2 z2 F,2 | E,2 C,2 E,2 | C,2 C,2 z2 | G,4 G,2 | ^F,4 F,2 | z2 z2 D,2 | %15
 G,,4 z2 | G,4 G,2 | G,4 G,2 | G,4 G,2 | C,2 C,2 z2 | C,4 C,2 | C,4 C,2 | C,4 D,C, | G,,4 z2 | %24
 C,4 D,2 | E,2 z2 F,2 | E,2 C,2 E,2 | C,2 C,2 z2 | C,4 B,,2 | C,4 D,2 | G,4 G,2 | C,4 z2 |] %32
V:5
 x6 | x6 | x6 | x6 | z2 G,,2 G,2 | x6 | x6 | x6 | x6 | x6 | x6 | x6 | x6 | x6 | x6 | x6 | x6 | x6 | %18
 x6 | x6 | x6 | x6 | x6 | x6 | x6 | x6 | x6 | x6 | x6 | x6 | x2[K:treble] x4 | x6 |] %32

